assets/svg/icon_field_identitykey.svg

<svg width="24" height="24" viewBox="0 0 24 24" fill="none" xmlns="http://www.w3.org/2000/svg">
<path d="M14.9446 14.0695C17.7366 14.0695 20 11.8154 20 9.03475C20 6.25413 17.7366 4 14.9446 4C12.1526 4 9.8892 6.25413 9.8892 9.03475C9.8892 10.3227 10.477 11.2594 10.477 11.2594L4.36352 17.3479C4.0892 17.6211 3.70515 18.3315 4.36352 18.9872L5.06893 19.6897C5.34324 19.9239 6.03295 20.2517 6.59728 19.6897L7.42025 18.8701C8.24322 19.6897 9.18376 19.2213 9.53646 18.753C10.1243 17.9334 9.4189 17.1138 9.4189 17.1138L9.65403 16.8796C10.7827 18.0036 11.7702 17.3479 12.1229 16.8796C12.7108 16.06 12.1229 15.2404 12.1229 15.2404C11.8878 14.772 11.4176 14.772 12.0054 14.1866L12.7108 13.4841C13.2751 13.9524 14.4351 14.0695 14.9446 14.0695Z" stroke="#494949" stroke-width="1.4" stroke-linejoin="round"/>
<path d="M16.7087 9.0356C16.7087 10.0056 15.9191 10.7919 14.9452 10.7919C13.9712 10.7919 13.1816 10.0056 13.1816 9.0356C13.1816 8.06562 13.9712 7.2793 14.9452 7.2793C15.9191 7.2793 16.7087 8.06562 16.7087 9.0356Z" stroke="#494949" stroke-width="1.4"/>
</svg>

<svg xmlns="http://www.w3.org/2000/svg" width="24" height="24" fill="none"><path stroke="#494949" stroke-linejoin="round" stroke-width="1.4" d="M14.945 14.07c2.792 0 5.055-2.255 5.055-5.035S17.737 4 14.945 4 9.889 6.254 9.889 9.035c0 1.288.588 2.224.588 2.224l-6.113 6.089c-.275.273-.659.983 0 1.64l.705.702c.274.234.964.562 1.528 0l.823-.82c.823.82 1.764.351 2.116-.117.588-.82-.117-1.64-.117-1.64l.235-.233c1.129 1.124 2.116.468 2.469 0 .588-.82 0-1.64 0-1.64-.235-.468-.705-.468-.118-1.053l.706-.703c.564.468 1.724.585 2.234.585Z"/><path stroke="#494949" stroke-width="1.4" d="M16.709 9.036c0 .97-.79 1.756-1.764 1.756a1.76 1.76 0 0 1-1.763-1.756c0-.97.79-1.757 1.763-1.757a1.76 1.76 0 0 1 1.764 1.757Z"/></svg>
